X: 22
T: The new Cotillon
R: jig
M: 6/8
L: 1/8
Z: 2010 John Chambers <jc:trillian.mit.edu>
B: Longman ed. "Twenty Four Country Dances", p.35 London 1770
K: A
|: cdc B2A | G2A B3 | c2B d2c | B2A GFE |\
   cdc B2A | G2A B3 | cea edc | c3  B3 :|
|: a2A a2A | a2A A3 | GAB B3  | GAB B3 |\
   a2A a2A | a2A A3 | cdc B2A | E2G A3 :|


%%sep 5 1 500

